X: 298
T:Waiting for the Federals
M:4/4
C:Trad. USA
S:Aly Bain Book
Z:Alf Warnock - alf0@rogers.com
L:1/8
K:G
DG|"G"B4 B2AB|d2B2 BAG2|"Em"B4 d3B|"Am"ABAG "D7"E2D2|
"G"B4 B2AB|d2B2 BAG2|"D7"ABAG E2F2| "G"G3A G2:|
Bd|"G"g4 gage|d2B2 BAG2|"Em"g4 gfga|beef e3f|
"G"gaba g2ge|dged BAG2|"Am"ABAG "D7"E2F2|[1 "G"G3A G2:|[2 G4 !fine!G2|]
